Newaita-dark/actions/24/dialog-ok-apply.svg

<svg height="24" viewBox="0 0 24 24" width="24" xmlns="http://www.w3.org/2000/svg"><path d="m19.992188 3.269531c-.195313-.007812-.375.09375-.46875.261719l-8.226563 14.421875-7.335937-7.339844c-.199219-.199219-.527344-.199219-.726563 0l-.746094.746094c-.199219.199219-.199219.527344 0 .726563l8.808594 8.808593c.238281.238281.640625.183594.808594-.109375l9.242187-16.1875c.136719-.242187.058594-.550781-.183594-.695312l-.929687-.558594c-.074219-.042969-.15625-.070312-.242187-.074219zm0 0" fill="#e0e0e0"/></svg>

<svg xmlns="http://www.w3.org/2000/svg" xmlns:xlink="http://www.w3.org/1999/xlink" width="24px" height="24px" viewBox="0 0 24 24" version="1.1">
<g id="surface1">
     <defs>
  <style id="current-color-scheme" type="text/css">
   .ColorScheme-Text { color:#eeeeee; } .ColorScheme-Highlight { color:#424242; }
  </style>
 </defs>
<path style="fill:currentColor" class="ColorScheme-Text" d="M 19.992188 3.269531 C 19.796875 3.261719 19.617188 3.363281 19.523438 3.53125 L 11.296875 17.953125 L 3.960938 10.613281 C 3.761719 10.414062 3.433594 10.414062 3.234375 10.613281 L 2.488281 11.359375 C 2.289062 11.558594 2.289062 11.886719 2.488281 12.085938 L 11.296875 20.894531 C 11.535156 21.132812 11.9375 21.078125 12.105469 20.785156 L 21.347656 4.597656 C 21.484375 4.355469 21.40625 4.046875 21.164062 3.902344 L 20.234375 3.34375 C 20.160156 3.300781 20.078125 3.273438 19.992188 3.269531 Z M 19.992188 3.269531 "/>
</g>
</svg>
